X:141
T:Rope Waltz
M:3/4
L:1/4
K:D
A G |: F>G A/2F/2 | D2d | c>d e/2c/2 | A2 G | 
F>G A/2F/2 | D2F | E>F G/2F/2 | E A G | F>G A/2F/2 | 
D2d | c>d e/2c/2 | A2 G | F>E D | EG C | 
D>E F/2E/2 |1 DAG :|2 Dde |: 
f2e | d2 c | dcB | A2 f | g2f | 
e2d | c>d e/2c/2 | Ade | f2e | d2 c | 
dcB | A2 G | F>E D | EG C | 
D>E F/2E/2 |1 Dde :|2 D3 | 

